X:20
T:score114
L:1/4
Q:1/4=96
M:4/4
I:linebreak $
K:C
 (G, | C2 B, C | A,2 G, C) | (D E/D/ E C |$ D2 D) (G, | C2 B, C | A,2 G, C) | (D E/F/ E C |$ %8
 D2 C) z |] %9
